assets/i/m-logo.svg

<svg height="43" viewBox="0 0 31 43" width="31" xmlns="http://www.w3.org/2000/svg"><path d="m15.5156368 0-15.5156368 9.04616787v18.06864433l4.42912989 2.5863117-.03127365-18.072593 11.08650696-6.46380476 11.0865069 6.46380476v18.0646958l4.4291299-2.5784145v-18.08443859zm2.1969735 29.6971753-2.2126103 1.2990787-2.224338-1.287233v-18.0804901l-4.42522064 2.5823631.00781841 18.0725929 6.63783103 3.8735446 6.6456494-3.8735446v-18.0725929l-4.4291299-2.5823631z" fill="#f26322" fill-rule="evenodd"/></svg>

<?xml version="1.0" encoding="UTF-8"?>
<svg width="31px" height="40px" viewBox="0 0 31 40" version="1.1" xmlns="http://www.w3.org/2000/svg" xmlns:xlink="http://www.w3.org/1999/xlink">
    <!-- Generator: Sketch 41 (35326) - http://www.bohemiancoding.com/sketch -->
    <title>m-logo</title>
    <desc>Created with Sketch.</desc>
    <defs></defs>
    <g id="Symbols" stroke="none" stroke-width="1" fill="none" fill-rule="evenodd">
        <g id="logo" fill="#F26322">
            <g id="Logo-2">
                <path d="M15.5156368,0 L0,9.04616787 L0,27.1148122 L4.42912989,29.7011239 L4.39785624,11.6285309 L15.4843632,5.16472614 L26.5708701,11.6285309 L26.5708701,29.6932267 L31,27.1148122 L31,9.03037361 L15.5156368,0 Z M17.7126103,29.6971753 L15.5,30.996254 L13.275662,29.709021 L13.275662,11.6285309 L8.85044136,14.210894 L8.85825977,32.2834869 L15.4960908,36.1570315 L22.1417402,32.2834869 L22.1417402,14.210894 L17.7126103,11.6285309 L17.7126103,29.6971753 Z" id="M"></path>
            </g>
        </g>
    </g>
</svg>
